assets/icons/categories/all.svg

<svg width="24px" height="24px" viewBox="0 0 24 24" fill="none" xmlns="http://www.w3.org/2000/svg">
<g id="Iconly/Curved/Category">
<g id="Category">
<path id="Stroke 1" fill-rule="evenodd" clip-rule="evenodd" d="M21.0003 6.6738C21.0003 8.7024 19.3551 10.3476 17.3265 10.3476C15.2979 10.3476 13.6536 8.7024 13.6536 6.6738C13.6536 4.6452 15.2979 3 17.3265 3C19.3551 3 21.0003 4.6452 21.0003 6.6738Z" stroke="#130F26" stroke-width="1.5" stroke-linecap="round" stroke-linejoin="round"/>
<path id="Stroke 3" fill-rule="evenodd" clip-rule="evenodd" d="M10.3467 6.6738C10.3467 8.7024 8.7024 10.3476 6.6729 10.3476C4.6452 10.3476 3 8.7024 3 6.6738C3 4.6452 4.6452 3 6.6729 3C8.7024 3 10.3467 4.6452 10.3467 6.6738Z" stroke="#130F26" stroke-width="1.5" stroke-linecap="round" stroke-linejoin="round"/>
<path id="Stroke 5" fill-rule="evenodd" clip-rule="evenodd" d="M21.0003 17.2619C21.0003 19.2905 19.3551 20.9348 17.3265 20.9348C15.2979 20.9348 13.6536 19.2905 13.6536 17.2619C13.6536 15.2333 15.2979 13.5881 17.3265 13.5881C19.3551 13.5881 21.0003 15.2333 21.0003 17.2619Z" stroke="#130F26" stroke-width="1.5" stroke-linecap="round" stroke-linejoin="round"/>
<path id="Stroke 7" fill-rule="evenodd" clip-rule="evenodd" d="M10.3467 17.2619C10.3467 19.2905 8.7024 20.9348 6.6729 20.9348C4.6452 20.9348 3 19.2905 3 17.2619C3 15.2333 4.6452 13.5881 6.6729 13.5881C8.7024 13.5881 10.3467 15.2333 10.3467 17.2619Z" stroke="#130F26" stroke-width="1.5" stroke-linecap="round" stroke-linejoin="round"/>
</g>
</g>
</svg>

<?xml version="1.0" encoding="utf-8"?>
<!-- Generator: Adobe Illustrator 27.9.6, SVG Export Plug-In . SVG Version: 9.03 Build 54986)  -->
<svg version="1.2" baseProfile="tiny" id="Layer_1" xmlns="http://www.w3.org/2000/svg" xmlns:xlink="http://www.w3.org/1999/xlink"
	 x="0px" y="0px" viewBox="0 0 24 24" overflow="visible" xml:space="preserve">
<g id="Iconly_x2F_Curved_x2F_Category">
	<g id="Category">
		<path id="Stroke_1" fill="none" stroke="#130F26" stroke-width="1.5" stroke-linecap="round" stroke-linejoin="round" d="
			M21,6.674c0,2.029-1.645,3.674-3.674,3.674s-3.673-1.645-3.673-3.674S15.298,3,17.326,3S21,4.645,21,6.674z"/>
		<path id="Stroke_3" fill="none" stroke="#130F26" stroke-width="1.5" stroke-linecap="round" stroke-linejoin="round" d="
			M10.347,6.674c0,2.029-1.644,3.674-3.674,3.674C4.645,10.348,3,8.702,3,6.674S4.645,3,6.673,3C8.702,3,10.347,4.645,10.347,6.674z
			"/>
		<path id="Stroke_5" fill="none" stroke="#130F26" stroke-width="1.5" stroke-linecap="round" stroke-linejoin="round" d="
			M21,17.262c0,2.029-1.645,3.673-3.674,3.673s-3.673-1.644-3.673-3.673s1.644-3.674,3.673-3.674S21,15.233,21,17.262z"/>
		<path id="Stroke_7" fill="none" stroke="#130F26" stroke-width="1.5" stroke-linecap="round" stroke-linejoin="round" d="
			M10.347,17.262c0,2.029-1.644,3.673-3.674,3.673C4.645,20.935,3,19.291,3,17.262s1.645-3.674,3.673-3.674
			C8.702,13.588,10.347,15.233,10.347,17.262z"/>
	</g>
</g>
</svg>
